source/images/footer-icon-github.svg

<svg width="20" height="20" viewBox="0 0 20 20" xmlns="http://www.w3.org/2000/svg">
    <path d="M9.434 0C4.226 0 0 4.225 0 9.434c0 4.165 2.702 7.702 6.45 8.955.057.01.11.014.16.014.357 0 .49-.254.49-.47 0-.22-.012-.97-.012-1.755 0 0-.424.09-.968.09-.81 0-1.884-.203-2.215-1.21 0 0-.428-1.094-1.042-1.376 0 0-.844-.578.034-.578h.026s.933.074 1.45.97c.46.81 1.092 1.038 1.655 1.038.444 0 .845-.142 1.085-.25.085-.614.33-1.02.603-1.265-2.102-.235-4.302-1.046-4.302-4.658 0-1.03.37-1.88.97-2.53-.1-.246-.417-1.203.086-2.506.073-.023.155-.033.243-.033.872 0 2.364 1.003 2.364 1.003.747-.21 1.56-.32 2.357-.32.8 0 1.61.11 2.36.32 0 0 1.488-1.003 2.35-1.003.087 0 .168.01.24.033.516 1.303.197 2.26.1 2.505.6.652.97 1.5.97 2.532 0 3.624-2.21 4.423-4.312 4.657.344.292.64.857.64 1.743v2.592c0 .216.12.47.477.47.047 0 .1-.005.16-.016 3.746-1.254 6.448-4.79 6.448-8.956C18.868 4.224 14.642 0 9.434 0" fill="#FFF" fill-rule="evenodd"/>
</svg>

<?xml version="1.0" encoding="UTF-8" standalone="no"?>
<svg width="20px" height="20px" viewBox="0 0 20 20" version="1.1" xmlns="http://www.w3.org/2000/svg" xmlns:xlink="http://www.w3.org/1999/xlink" xmlns:sketch="http://www.bohemiancoding.com/sketch/ns">
    <!-- Generator: Sketch 3.3.2 (12043) - http://www.bohemiancoding.com/sketch -->
    <title>footer-icon-github</title>
    <desc>Created with Sketch.</desc>
    <defs></defs>
    <g id="Page-1" stroke="none" stroke-width="1" fill="none" fill-rule="evenodd" sketch:type="MSPage">
        <g id="footer-icon-github" sketch:type="MSArtboardGroup" fill="#FFFFFF">
            <path d="M9.434,0 C4.226,0 0,4.225 0,9.434 C0,13.599 2.702,17.136 6.449,18.389 C6.507,18.4 6.56,18.404 6.609,18.404 C6.967,18.404 7.101,18.15 7.101,17.935 C7.101,17.714 7.088,16.964 7.088,16.179 C7.088,16.179 6.664,16.27 6.12,16.27 C5.311,16.27 4.236,16.067 3.905,15.06 C3.905,15.06 3.477,13.966 2.863,13.684 C2.863,13.684 2.019,13.106 2.897,13.106 L2.923,13.106 C2.923,13.106 3.856,13.18 4.373,14.077 C4.833,14.887 5.465,15.114 6.028,15.114 C6.472,15.114 6.873,14.972 7.113,14.864 C7.198,14.25 7.444,13.844 7.716,13.599 C5.614,13.365 3.414,12.554 3.414,8.942 C3.414,7.911 3.783,7.062 4.385,6.411 C4.285,6.166 3.967,5.209 4.47,3.906 C4.543,3.883 4.625,3.873 4.713,3.873 C5.585,3.873 7.077,4.876 7.077,4.876 C7.824,4.667 8.637,4.557 9.434,4.557 C10.233,4.557 11.043,4.667 11.793,4.876 C11.793,4.876 13.282,3.873 14.145,3.873 C14.231,3.873 14.312,3.883 14.384,3.906 C14.9,5.209 14.581,6.166 14.483,6.411 C15.084,7.062 15.453,7.911 15.453,8.942 C15.453,12.566 13.243,13.365 11.142,13.599 C11.486,13.892 11.781,14.457 11.781,15.343 L11.781,17.935 C11.781,18.151 11.903,18.404 12.259,18.404 C12.307,18.404 12.361,18.4 12.419,18.389 C16.166,17.136 18.868,13.599 18.868,9.434 C18.868,4.225 14.642,0 9.434,0" id="Imported-Layers" sketch:type="MSShapeGroup"></path>
        </g>
    </g>
</svg>
